src/icons/setings.svg

<?xml version="1.0" encoding="UTF-8" standalone="no"?>
<!DOCTYPE svg PUBLIC "-//W3C//DTD SVG 1.1//EN" "http://www.w3.org/Graphics/SVG/1.1/DTD/svg11.dtd">
<svg width="25px" height="25px" version="1.1" xmlns="http://www.w3.org/2000/svg" xmlns:xlink="http://www.w3.org/1999/xlink" xml:space="preserve" xmlns:serif="http://www.serif.com/" style="fill-rule:evenodd;clip-rule:evenodd;stroke-linejoin:round;stroke-miterlimit:2;">
    <g transform="matrix(1,0,0,1,-1889,-48)">
        <g transform="matrix(1,0,0,1,0,30.298)">
            <g id="setings" transform="matrix(0.500001,0,0,0.500002,1435.14,12.0004)">
                <g id="settings-bg" transform="matrix(0.827698,0,0,1.29375,117.032,-202.888)">
                    <ellipse cx="986" cy="184.647" rx="28.996" ry="18.551"/>
                </g>
                <g id="setings-symbol" transform="matrix(0.819994,0,0,0.735219,137.268,-176.431)">
                    <path d="M974.812,264.909c-2.791,-0.611 -5.661,-0.611 -8.452,0l-0.933,5.666c-2.423,0.847 -4.648,2.28 -6.517,4.197l-4.866,-1.933c-1.87,2.39 -3.305,5.163 -4.226,8.164l3.934,3.733c-0.554,2.764 -0.554,5.63 0,8.394l-3.934,3.733c0.921,3.001 2.356,5.774 4.226,8.164l4.866,-1.932c1.869,1.917 4.094,3.35 6.517,4.197l0.933,5.666c2.791,0.61 5.661,0.61 8.452,0l0.932,-5.666c2.423,-0.847 4.649,-2.28 6.518,-4.197l4.866,1.932c1.869,-2.39 3.305,-5.163 4.226,-8.164l-3.934,-3.733c0.554,-2.764 0.554,-5.63 0,-8.394l3.934,-3.733c-0.921,-3.001 -2.357,-5.774 -4.226,-8.164l-4.866,1.933c-1.869,-1.917 -4.095,-3.35 -6.518,-4.197l-0.932,-5.666Zm-4.226,14.575c4.676,0 8.472,4.234 8.472,9.449c0,5.215 -3.796,9.449 -8.472,9.449c-4.676,0 -8.472,-4.234 -8.472,-9.449c0,-5.215 3.796,-9.449 8.472,-9.449Z" style="fill:white;"/>
                </g>
            </g>
        </g>
    </g>
</svg>

<?xml version="1.0" encoding="UTF-8" standalone="no"?><!DOCTYPE svg PUBLIC "-//W3C//DTD SVG 1.1//EN" "http://www.w3.org/Graphics/SVG/1.1/DTD/svg11.dtd"><svg width="49px" height="49px" version="1.1" xmlns="http://www.w3.org/2000/svg" xmlns:xlink="http://www.w3.org/1999/xlink" xml:space="preserve" xmlns:serif="http://www.serif.com/" style="fill-rule:evenodd;clip-rule:evenodd;stroke-linejoin:round;stroke-miterlimit:2;"><g transform="matrix(1,0,0,1,-1889,-176)"><g transform="matrix(1,0,0,1,2.27374e-13,20.6936)"><g id="setings" transform="matrix(1,0,0,1,980.569,143.605)"><g id="settings-bg" transform="matrix(0.827698,0,0,1.29375,117.032,-202.888)"><ellipse cx="986" cy="184.647" rx="28.996" ry="18.551"/></g><g id="setings-symbol" transform="matrix(0.819994,0,0,0.735219,137.268,-176.431)"><path d="M974.812,264.909C972.021,264.298 969.151,264.298 966.36,264.909L965.427,270.575C963.004,271.422 960.779,272.855 958.91,274.772L954.044,272.839C952.174,275.229 950.739,278.002 949.818,281.003L953.752,284.736C953.198,287.5 953.198,290.366 953.752,293.13L949.818,296.863C950.739,299.864 952.174,302.637 954.044,305.027L958.91,303.095C960.779,305.012 963.004,306.445 965.427,307.292L966.36,312.958C969.151,313.568 972.021,313.568 974.812,312.958L975.744,307.292C978.167,306.445 980.393,305.012 982.262,303.095L987.128,305.027C988.997,302.637 990.433,299.864 991.354,296.863L987.42,293.13C987.974,290.366 987.974,287.5 987.42,284.736L991.354,281.003C990.433,278.002 988.997,275.229 987.128,272.839L982.262,274.772C980.393,272.855 978.167,271.422 975.744,270.575L974.812,264.909ZM970.586,279.484C975.262,279.484 979.058,283.718 979.058,288.933C979.058,294.148 975.262,298.382 970.586,298.382C965.91,298.382 962.114,294.148 962.114,288.933C962.114,283.718 965.91,279.484 970.586,279.484Z" style="fill:white;"/></g></g></g></g></svg>
